frontend/public/assets/material-icons/folder-import.svg

<svg xmlns="http://www.w3.org/2000/svg" viewBox="0 0 32 32"><path fill="#afb42b" d="m13.844 7.536-1.288-1.072A2 2 0 0 0 11.276 6H4a2 2 0 0 0-2 2v16a2 2 0 0 0 2 2h24a2 2 0 0 0 2-2V10a2 2 0 0 0-2-2H15.124a2 2 0 0 1-1.28-.464"/><path fill="#f0f4c3" d="M25 14a7 7 0 1 0 7 7 7 7 0 0 0-7-7m1 8v4h-2v-4h-4v-2h4v-4h2v4h4v2Z"/></svg>

<svg xmlns="http://www.w3.org/2000/svg" viewBox="0 0 32 32">
  <path d="M13.84376,7.53645l-1.28749-1.0729A2,2,0,0,0,11.27591,6H4A2,2,0,0,0,2,8V24a2,2,0,0,0,2,2H28a2,2,0,0,0,2-2V10a2,2,0,0,0-2-2H15.12412A2,2,0,0,1,13.84376,7.53645Z" style="fill: #afb42b"/>
  <path d="M25,14a7,7,0,1,0,7,7A7,7,0,0,0,25,14Zm1,8v4H24V22H20V20h4V16h2v4h4v2Z" style="fill: #f0f4c3;fill-rule: evenodd"/>
</svg>
